X:255
T:Just over in the Gloryland
C:The New Tradition - Daddy on his knees
N:solo Danny Roberts - Transcribed by Philippe Colleu
R:bluegrass
L:1/8
Q:1/4=240
M:4/4
K:C
"(120 bpm)""B"z2 ^G/G/G B2 ^c2 | d/z/^d ^f2 =d/z/^d f2 | bb ^g^f af ag | ^fd/z/ ^dB =d^c B^G | 
Bd/z/ ^dB ^c2 B2 | "E"d/z/^d e=d ^de =d^d | ed ^de =d^d ef | ^f=f ed ^cA cB | 
"B"Ab ae ba ba | b2 ba b2 ba | b^c' be be f^f | "F#"ef ^f=f e2 dA | B^F A=F ^FD =FE | 
"B"D_B, =B,6 | 


